X: 1
T:Miss Brown's -- Reel
M:2/4
L:1/16
R:reel
B:Ryan's Mammoth Collection
Z:Contributed by Ray Davies,  ray:davies99.freeserve.co.uk
K:D
((3GFE)|D2D2 DFAF|dFAF dFAF|E2(EF) GBEB|edcB AGFE|
D2D2 DFAF|dFBF GFED|DFAg faec|d2d2d2::
vag|(fd).d.d fdad|fd ((3efg) a2ed|(cA).A.A ceAe|cdef g2eg|
(fd).d.d fdad|fd ((3efg) a2gf|gbag fedc|d2d2d2:|
